build/category/BurnOutline.svg

<svg xmlns="http://www.w3.org/2000/svg" fill="none" viewBox="0 0 24 24" focusable="false"><path d="M0 0H24V24H0z"/><path fill="#74767B" fill-rule="evenodd" d="M9.19829 18.9983C8.95374 18.5367 8.80697 17.9607 8.80697 17.2669C8.80697 15.4655 9.69683 14.394 10.5276 13.3937L10.6445 13.2469C10.8421 13.0088 10.9422 12.8714 11.0998 12.6046C11.2395 12.368 11.3553 12.1246 11.4468 11.8727C11.5237 11.6611 11.7046 11.5044 11.9249 11.4584C12.1452 11.4124 12.3737 11.4837 12.5288 11.6468C13.5638 12.7353 14.1988 13.5732 14.5888 14.2892C15.0854 15.2012 15.1931 15.9311 15.1931 16.8011C15.1931 17.7006 14.8178 18.5886 14.2176 19.2741C16.2752 18.4416 17.7 16.4724 17.7 14.112C17.7 11.595 16.0769 10.2954 14.5152 9.10162L14.4696 9.06681C14.0803 8.76934 13.6389 8.43211 13.303 8.0896C12.4554 7.22527 11.8777 6.24259 11.6699 5.01247C7.15839 9.20068 6.3 11.7891 6.3 14.112C6.3 16.2418 7.46008 18.0532 9.19829 18.9983ZM12 21C15.866 21 19 18 19 14.112C19 10.8935 16.8391 9.24171 15.3046 8.0688C14.8786 7.74317 14.5009 7.45445 14.2312 7.17937C13.3833 6.31484 12.9118 5.37105 12.8856 4.07035C12.8721 3.39862 12.0556 2.91604 11.5535 3.36242C6.25494 8.07263 5 11.1376 5 14.112C5 18 8.13401 21 12 21ZM11.6198 14.1133C11.8486 13.8375 12.0531 13.5494 12.2302 13.2469C12.8337 13.9382 13.2087 14.4731 13.4471 14.911C13.8134 15.5835 13.8931 16.0853 13.8931 16.8011C13.8931 17.3718 13.6369 17.9935 13.181 18.4825C12.7188 18.9783 12.2039 19.1815 11.8296 19.1815C11.2567 19.1815 10.8545 18.9901 10.6006 18.7364C10.3537 18.4897 10.107 18.0441 10.107 17.2669C10.107 15.9588 10.7091 15.2102 11.5592 14.1863L11.6198 14.1133Z"/></svg>

<svg xmlns="http://www.w3.org/2000/svg" fill="none" viewBox="0 0 24 24" focusable="false"><path fill="#74767B" fill-rule="evenodd" d="M9.19 18.99c-.24-.46-.39-1.03-.39-1.73 0-1.8.89-2.87 1.72-3.87l.12-.15c.2-.24.3-.37.45-.64.14-.24.26-.48.35-.73.08-.21.26-.37.48-.42.22-.04.45.03.6.19 1.04 1.09 1.67 1.93 2.06 2.64.5.92.61 1.65.61 2.52 0 .9-.38 1.78-.98 2.47 2.06-.83 3.49-2.8 3.49-5.16 0-2.52-1.63-3.82-3.19-5.01l-.05-.04c-.38-.3-.83-.63-1.16-.98-.85-.86-1.43-1.84-1.64-3.07-4.51 4.19-5.37 6.77-5.37 9.1 0 2.13 1.16 3.94 2.9 4.88M12 21c3.86 0 7-3 7-6.89 0-3.22-2.17-4.87-3.7-6.05-.43-.32-.8-.61-1.07-.89-.85-.86-1.32-1.8-1.35-3.1-.01-.68-.83-1.16-1.33-.71C6.25 8.07 5 11.13 5 14.11 5 18 8.13 21 12 21m-.39-6.89c.23-.28.44-.57.62-.87.6.69.97 1.23 1.21 1.67.37.67.45 1.17.45 1.89 0 .57-.26 1.19-.71 1.68-.47.49-.98.7-1.36.7-.57 0-.97-.19-1.22-.45-.25-.25-.5-.69-.5-1.47 0-1.31.6-2.05 1.45-3.08z"/></svg>
